svgs/regular/swords-laser.svg

<svg xmlns="http://www.w3.org/2000/svg" viewBox="0 0 640 512"><!-- Font Awesome Pro 5.15.1 by @fontawesome - https://fontawesome.com License - https://fontawesome.com/license (Commercial License) --><path d="M136.77186,8.71727a29.77142,29.77142,0,0,0-.79483,41.26562l216.0556,235.26173V167.75048L178.03476,7.92234A29.76184,29.76184,0,0,0,136.77186,8.71727Zm487.23191,384.291L411.30716,181.52587a15.99854,15.99854,0,0,0-27.27816,11.3457V352.37939a16.00105,16.00105,0,0,0,4.685,11.3125L521.01739,496.00244a54.61454,54.61454,0,0,0,77.23929,0l25.74709-25.748a54.626,54.626,0,0,0,0-77.24609ZM432.02356,339.12548V268.89892l70.23814,70.24023-35.11126,35.11329ZM564.31717,462.06494a6.6166,6.6166,0,0,1-9.36222-.00195l-65.18207-65.18751,10.45585-10.45507L570.0919,456.2876Zm25.749-25.75195-5.77669,5.77539-69.86317-69.86719,10.4578-10.459,65.18206,65.1875a6.62075,6.62075,0,0,1,0,9.36329ZM414.60757,147.31493l89.4137-97.332a29.76239,29.76239,0,0,0-42.05579-42.0625L343.66834,116.61766l30.00832,27.56446,5.79426,5.32226a47.89343,47.89343,0,0,1,20.67149-4.66406A47.27194,47.27194,0,0,1,414.60757,147.31493Zm-173.951,63.957-39.79822,36.57032-24.343-24.34571a8.00142,8.00142,0,0,0-11.31317,0L153.891,234.811a8.00009,8.00009,0,0,0,0,11.31445l4.48,4.47851L15.99648,393.00439a54.62537,54.62537,0,0,0,0,77.2461l25.74708,25.75195a54.60807,54.60807,0,0,0,77.23539-.00195L261.3554,353.60009l5.65951,5.66211a8.00143,8.00143,0,0,0,11.31318,0l11.31121-11.31445a7.99772,7.99772,0,0,0,0-11.3125l-25.51078-25.51368,34.11723-37.13867ZM85.04139,462.061a6.62663,6.62663,0,0,1-9.35831.00391L49.934,436.311a6.63257,6.63257,0,0,1,0-9.36719l63.19011-63.19922,35.1093,35.11329Zm74.50328-74.51562-35.10931-35.11524,11.31318-11.3125,35.1093,35.11328ZM182.171,364.9165l-35.1093-35.11328L158.371,318.48876l35.11126,35.11329Zm22.62244-22.62891-35.10931-35.11328,11.31318-11.3125,35.1093,35.11328Z"/></svg>

<svg xmlns="http://www.w3.org/2000/svg" viewBox="0 0 640 512"><!-- Font Awesome Pro 6.0.0-alpha2 by @fontawesome - https://fontawesome.com License - https://fontawesome.com/license (Commercial License) --><path d="M136.738 8.787C125.489 20.035 125.114 38.283 135.988 50.031L351.967 285.249V167.765L177.984 7.912C166.235 -2.962 148.112 -2.587 136.738 8.787ZM623.941 392.985L411.211 181.513C406.712 177.014 399.837 175.639 393.838 178.139C387.839 180.638 383.964 186.388 383.964 192.887V352.365C383.964 356.615 385.714 360.739 388.714 363.739L520.951 495.971C542.324 517.343 576.82 517.343 598.193 495.971L623.941 470.224C645.314 448.852 645.314 414.357 623.941 392.985ZM431.959 339.117V268.877L502.202 339.117L467.081 374.237L431.959 339.117ZM564.321 462.1C563.072 463.225 561.322 463.975 559.572 463.975C557.822 463.975 556.197 463.225 554.947 462.1L489.704 396.859L500.203 386.361L570.071 456.226L564.321 462.1ZM590.069 436.354L584.194 442.103L514.326 372.238L524.825 361.739L590.069 426.98C592.569 429.48 592.569 433.729 590.069 436.354ZM414.586 147.393L503.952 50.031C514.826 38.283 514.451 20.035 503.202 8.787C491.829 -2.587 473.705 -2.962 461.956 7.912L343.593 116.647L373.59 144.143L379.465 149.518C385.839 146.393 392.963 144.893 400.087 144.893C405.087 144.893 409.962 145.768 414.586 147.393ZM240.603 211.259L200.857 247.879L176.484 223.508C173.36 220.383 168.36 220.383 165.235 223.508L153.862 234.756C150.737 237.881 150.737 243.005 153.862 246.13L158.361 250.629L16 392.985C-5.373 414.357 -5.373 448.852 16 470.224L41.748 495.971C63.12 517.343 97.617 517.343 118.99 495.971L261.351 353.615L266.976 359.239C270.1 362.364 275.225 362.364 278.349 359.239L289.598 347.991C292.723 344.866 292.723 339.742 289.598 336.617L264.101 311.121L298.222 274.001L240.603 211.259ZM84.993 461.975C82.494 464.6 78.244 464.6 75.619 462.1L49.872 436.229C47.372 433.729 47.372 429.48 49.872 426.98L113.116 363.739L148.237 398.859L84.993 461.975ZM159.486 387.486L124.364 352.365L135.738 341.117L170.86 376.237L159.486 387.486ZM182.109 364.864L146.987 329.743L158.361 318.495L193.483 353.615L182.109 364.864ZM204.732 342.242L169.61 307.121L180.984 295.873L216.105 330.993L204.732 342.242Z"/></svg>
